resources/icons/20px/cloud-server.svg

<svg width="20" height="20" viewBox="0 0 20 20" fill="none" xmlns="http://www.w3.org/2000/svg">
<path d="M9 15H20V19H9V15ZM12 17C12 16.7348 11.8946 16.4804 11.7071 16.2929C11.5196 16.1054 11.2652 16 11 16C10.7348 16 10.4804 16.1054 10.2929 16.2929C10.1054 16.4804 10 16.7348 10 17C10 17.2652 10.1054 17.5196 10.2929 17.7071C10.4804 17.8946 10.7348 18 11 18C11.2652 18 11.5196 17.8946 11.7071 17.7071C11.8946 17.5196 12 17.2652 12 17ZM14 16C13.7348 16 13.4804 16.1054 13.2929 16.2929C13.1054 16.4804 13 16.7348 13 17C13 17.2652 13.1054 17.5196 13.2929 17.7071C13.4804 17.8946 13.7348 18 14 18H18C18.2652 18 18.5196 17.8946 18.7071 17.7071C18.8946 17.5196 19 17.2652 19 17C19 16.7348 18.8946 16.4804 18.7071 16.2929C18.5196 16.1054 18.2652 16 18 16H14ZM14.784 5.022C14.856 5.01 14.928 5 15 5C16.1525 5.00052 17.2694 5.39881 18.1622 6.12759C19.0549 6.85638 19.6688 7.87098 19.9 9H9C8.73478 9 8.48043 9.10536 8.29289 9.29289C8.10536 9.48043 8 9.73478 8 10V15H4C1.79 15 0 13.21 0 11C-2.88608e-06 10.1132 0.296143 9.25186 0.841445 8.55256C1.38675 7.85327 2.14997 7.35612 3.01 7.14C3.01 7.11533 3.00833 7.092 3.005 7.07C3.00251 7.04673 3.00085 7.02338 3 7C3 3.69 5.69 1 9 1C11.62 1 13.83 2.69 14.64 5.04C14.688 5.03533 14.736 5.02933 14.784 5.022Z" fill="black"/>
<path d="M9 10H20V14H9V10ZM12 12C12 11.7348 11.8946 11.4804 11.7071 11.2929C11.5196 11.1054 11.2652 11 11 11C10.7348 11 10.4804 11.1054 10.2929 11.2929C10.1054 11.4804 10 11.7348 10 12C10 12.2652 10.1054 12.5196 10.2929 12.7071C10.4804 12.8946 10.7348 13 11 13C11.2652 13 11.5196 12.8946 11.7071 12.7071C11.8946 12.5196 12 12.2652 12 12ZM14 11C13.7348 11 13.4804 11.1054 13.2929 11.2929C13.1054 11.4804 13 11.7348 13 12C13 12.2652 13.1054 12.5196 13.2929 12.7071C13.4804 12.8946 13.7348 13 14 13H18C18.2652 13 18.5196 12.8946 18.7071 12.7071C18.8946 12.5196 19 12.2652 19 12C19 11.7348 18.8946 11.4804 18.7071 11.2929C18.5196 11.1054 18.2652 11 18 11H14Z" fill="black"/>
</svg>

<svg xmlns="http://www.w3.org/2000/svg" viewBox="0 0 20 20">
  <path d="M9 15h11v4H9zm3 2a1 1 0 1 0-2 0 1 1 0 0 0 2 0m2-1a1 1 0 0 0 0 2h4a1 1 0 0 0 0-2zm.784-10.978C14.856 5.01 14.928 5 15 5a5.004 5.004 0 0 1 4.9 4H9a1 1 0 0 0-1 1v5H4c-2.21 0-4-1.79-4-4a3.98 3.98 0 0 1 3.01-3.86 1 1 0 0 0-.005-.07L3 7c0-3.31 2.69-6 6-6 2.62 0 4.83 1.69 5.64 4.04z"/>
  <path d="M9 10h11v4H9zm3 2a1 1 0 1 0-2 0 1 1 0 0 0 2 0m2-1a1 1 0 0 0 0 2h4a1 1 0 0 0 0-2z"/>
</svg>
